Sweet-Rainbow/icons/meld.svg

<?xml version="1.0" encoding="UTF-8" standalone="no"?>
<!-- Generator: Gravit.io -->

<svg
   xmlns:dc="http://purl.org/dc/elements/1.1/"
   xmlns:cc="http://creativecommons.org/ns#"
   xmlns:rdf="http://www.w3.org/1999/02/22-rdf-syntax-ns#"
   xmlns:svg="http://www.w3.org/2000/svg"
   xmlns="http://www.w3.org/2000/svg"
   xmlns:sodipodi="http://sodipodi.sourceforge.net/DTD/sodipodi-0.dtd"
   xmlns:inkscape="http://www.inkscape.org/namespaces/inkscape"
   style="isolation:isolate"
   viewBox="0 0 36 36"
   width="48"
   height="48"
   version="1.1"
   id="svg9"
   sodipodi:docname="meld.svg"
   inkscape:version="0.92.4 (5da689c313, 2019-01-14)">
  <metadata
     id="metadata15">
    <rdf:RDF>
      <cc:Work
         rdf:about="">
        <dc:format>image/svg+xml</dc:format>
        <dc:type
           rdf:resource="http://purl.org/dc/dcmitype/StillImage" />
        <dc:title></dc:title>
      </cc:Work>
    </rdf:RDF>
  </metadata>
  <defs
     id="defs13" />
  <sodipodi:namedview
     pagecolor="#ffffff"
     bordercolor="#666666"
     borderopacity="1"
     objecttolerance="10"
     gridtolerance="10"
     guidetolerance="10"
     inkscape:pageopacity="0"
     inkscape:pageshadow="2"
     inkscape:window-width="640"
     inkscape:window-height="480"
     id="namedview11"
     showgrid="false"
     inkscape:zoom="29.365243"
     inkscape:cx="25.325443"
     inkscape:cy="32"
     inkscape:current-layer="svg9"
     units="px" />
  <linearGradient
     id="_lgradient_51"
     x1="0"
     y1="0.5"
     x2="1"
     y2="0.5"
     gradientTransform="matrix(46,0,0,47.259,1,0.727)"
     gradientUnits="userSpaceOnUse">
    <stop
       offset="0%"
       stop-opacity="1"
       style="stop-color:rgb(255,224,49)"
       id="stop2" />
    <stop
       offset="98.69565217391305%"
       stop-opacity="1"
       style="stop-color:rgb(252,82,82)"
       id="stop4" />
  </linearGradient>
  <g
     id="g826"
     transform="matrix(0.76175123,0,0,0.76175123,-0.28207587,-0.55340914)">
    <path
       id="path7"
       d="m 5.155,4.988 c -5.554,8.479 -5.526,16.971 0,25.392 1.172,1.338 2.517,2.568 4.07,3.609 3.022,2.026 6.631,3.371 10.203,3.318 3.571,-0.053 7.122,-1.521 9.974,-5.108 2.917,-3.67 0.838,-9.206 -1.716,-10.683 -2.065,-0.964 -3.876,0.63 -4.144,1.652 0.741,-0.342 3.138,-0.506 3.574,0.953 0.458,3.388 -1.771,6.318 -4.909,6.663 -5.299,0.583 -9.435,-4.708 -9.859,-9.697 C 11.751,14.051 17.177,7.025 23.583,5.012 17.315,-0.699 11.182,-0.697 5.155,4.988 Z m 23.753,5.705 c -3.572,0.053 -7.123,1.521 -9.974,5.108 -2.917,3.67 -0.839,9.3 1.715,10.778 2.065,0.964 3.876,-0.631 4.144,-1.653 -0.74,0.343 -3.128,0.369 -3.564,-1.089 -0.458,-3.389 1.761,-6.276 4.899,-6.621 5.3,-0.583 9.436,4.708 9.859,9.697 0.598,7.036 -4.829,14.062 -11.234,16.075 6.193,6.646 12.355,6.674 18.427,0.024 5.084,-9.194 5.103,-17.639 0,-25.392 -1.171,-1.338 -2.517,-2.568 -4.07,-3.609 -3.022,-2.026 -6.631,-3.371 -10.202,-3.318 z"
       style="fill:url(#_lgradient_51);fill-rule:evenodd"
       inkscape:connector-curvature="0" />
  </g>
</svg>

<?xml version="1.0" encoding="UTF-8" standalone="no"?><!-- Generator: Gravit.io --><svg xmlns="http://www.w3.org/2000/svg" xmlns:xlink="http://www.w3.org/1999/xlink" style="isolation:isolate" viewBox="0 0 48 48" width="48pt" height="48pt"><linearGradient id="_lgradient_51" x1="0" y1="0.5" x2="1" y2="0.5" gradientTransform="matrix(46,0,0,47.259,1,0.727)" gradientUnits="userSpaceOnUse"><stop offset="0%" stop-opacity="1" style="stop-color:rgb(255,224,49)"/><stop offset="98.69565217391305%" stop-opacity="1" style="stop-color:rgb(252,82,82)"/></linearGradient><path d=" M 5.155 4.988 C -0.399 13.467 -0.371 21.959 5.155 30.38 C 6.327 31.718 7.672 32.948 9.225 33.989 C 12.247 36.015 15.856 37.36 19.428 37.307 C 22.999 37.254 26.55 35.786 29.402 32.199 C 32.319 28.529 30.24 22.993 27.686 21.516 C 25.621 20.552 23.81 22.146 23.542 23.168 C 24.283 22.826 26.68 22.662 27.116 24.121 C 27.574 27.509 25.345 30.439 22.207 30.784 C 16.908 31.367 12.772 26.076 12.348 21.087 C 11.751 14.051 17.177 7.025 23.583 5.012 C 17.315 -0.699 11.182 -0.697 5.155 4.988 Z  M 28.908 10.693 C 25.336 10.746 21.785 12.214 18.934 15.801 C 16.017 19.471 18.095 25.101 20.649 26.579 C 22.714 27.543 24.525 25.948 24.793 24.926 C 24.053 25.269 21.665 25.295 21.229 23.837 C 20.771 20.448 22.99 17.561 26.128 17.216 C 31.428 16.633 35.564 21.924 35.987 26.913 C 36.585 33.949 31.158 40.975 24.753 42.988 C 30.946 49.634 37.108 49.662 43.18 43.012 C 48.264 33.818 48.283 25.373 43.18 17.62 C 42.009 16.282 40.663 15.052 39.11 14.011 C 36.088 11.985 32.479 10.64 28.908 10.693 Z " fill-rule="evenodd" fill="url(#_lgradient_51)"/></svg>
